X: 3
T: Down The Broom
R: reel
M: 4/4
L: 1/8
K: Ador
|EAAG A2Bd|eg~g2 egdc|BGGF GAGE|D2B,D GABG|
EAAG A2Bd|eg~g2 egdg|eg~g2 dgba|gedB BAAA|
|a2ea ageg|agbg agef|gedc BGBd|~g3a bgeg|
a2ea ageg|agbg ageg|dg~g2 dgba|gedB BAAA|

